img/icon-tg.svg

<svg width="18" height="18" viewBox="0 0 18 18" fill="none" xmlns="http://www.w3.org/2000/svg">
<path d="M16.7034 3.20204L14.3269 14.4099C14.1474 15.2007 13.68 15.3976 13.0157 15.0252L9.39432 12.3567L7.6472 14.0375C7.4537 14.231 7.29226 14.3924 6.91932 14.3924L7.17976 10.7047L13.8909 4.64035C14.1829 4.38048 13.8274 4.23592 13.4376 4.49635L5.1407 9.72085L1.56882 8.6026C0.792009 8.36017 0.777946 7.82579 1.73082 7.45285L15.7016 2.07029C16.3485 1.82785 16.9144 2.21429 16.7034 3.2026V3.20204Z" fill="#D22856"/>
</svg>

<svg width="18" height="18" fill="none" xmlns="http://www.w3.org/2000/svg"><path d="m16.7 3.2-2.37 11.21c-.18.8-.65.99-1.31.62l-3.63-2.67-1.74 1.68c-.2.2-.36.35-.73.35l.26-3.69 6.71-6.06c.3-.26-.06-.4-.45-.14l-8.3 5.22L1.57 8.6c-.78-.24-.8-.77.16-1.15L15.7 2.07c.65-.24 1.21.14 1 1.13Z" fill="#D22856"/></svg>
